src/assets/filled/RowHorizontal.svg

<?xml version="1.0" encoding="UTF-8"?>
<svg width="24" height="24" viewBox="0 0 24 24" xmlns="http://www.w3.org/2000/svg">
 <path d="m13.5 4.1v15.8c0 1.5 0.64 2.1 2.23 2.1h4.04c1.59 0 2.23-0.6 2.23-2.1v-15.8c0-1.5-0.64-2.1-2.23-2.1h-4.04c-1.59 0-2.23 0.6-2.23 2.1z"/>
 <path d="M2 4.1V19.9C2 21.4 2.64 22 4.23 22H8.27C9.86 22 10.5 21.4 10.5 19.9V4.1C10.5 2.6 9.86 2 8.27 2H4.23C2.64 2 2 2.6 2 4.1Z"/>
</svg>

<svg width="24" height="24" viewBox="0 0 24 24"  xmlns="http://www.w3.org/2000/svg">
<path d="M13.5 4.1V19.9C13.5 21.4 14.14 22 15.73 22H19.77C21.36 22 22 21.4 22 19.9V4.1C22 2.6 21.36 2 19.77 2H15.73C14.14 2 13.5 2.6 13.5 4.1Z" />
<path d="M2 4.1V19.9C2 21.4 2.64 22 4.23 22H8.27C9.86 22 10.5 21.4 10.5 19.9V4.1C10.5 2.6 9.86 2 8.27 2H4.23C2.64 2 2 2.6 2 4.1Z" />
</svg>
